!!!OTL: Anrufung Gottes. / (Protestantische Verwendung der vorigen Melodie.)
!!!ARE: Europa, Mitteleuropa, Deutschland
!!!SCT: A0593
!!!TXL: @@DE
!!!YEM: Copyright 1995, estate of Helmut Schaffrath.
**kern	**text
*M4/2	*
*met(c|)	*
*clefC3	*
*k[]	*
*G:mix	*
=1	=1
{0G	Dich
=2	=2
1c	Gott
1A	von
=3	=3
1B	Hi-
2c	-mel
*lig	*
1d	ruf
=4-	=4-
.	.
2c	.
*Xlig	*
1B	ich
=5	=5
0A}	an,
=6||	=6||
{1r	.
1G	aus
=7	=7
1A	tieſ-
1B	-ſer
=8	=8
1G	angſt
2G	vnd
*lig	*
2.c	nö-
=9	=9
.	.
4B	.
2c/	.
*Xlig	*
1A	-then
=10	=10
0G}	mein,}
=11	=11
{0G	Denn
=12	=12
1c	ich
1A	hab
=13	=13
1B	gar
2c	viel
*lig	*
1d	ſünd
=14-	=14-
.	.
2c	.
*Xlig	*
1B	ge-
=15	=15
0A}	-than,
=16||	=16||
{1r	.
1G	ker
=17	=17
1A	her
1B	ʒu
=18	=18
1G	mir
2G	die
*lig	*
2.c	oh-
=19	=19
.	.
4B	.
2c/	.
*Xlig	*
1A	-ren
=20	=20
0G}	dein,}
=21	=21
{1r	.
1G	er-
=22	=22
1A	-hör
1B	mein
=23	=23
0c	ſtim,
=24	=24
1r	.
1c	wend
=25	=25
1B	dei-
1c	-nen
=26	=26
0d}	grim
=27	=27
{1r	.
1e	vnd
=28	=28
1.e	ʒorn
4d	.
4c	.
=29	=29
2B	.
2A	.
1B	von
=30	=30
0A}	mir,
=31	=31
{1r	.
1G	auff
=32	=32
1A	mein
1B	fle-
=33	=33
1G	-hen
2G	vnd
*lig	*
2.c	hertʒ-
=34	=34
.	.
4B	.
2c	.
*Xlig	*
1A	-lich
=35	=35
0G}	gir,
=36	=36
{1r	.
1G	ʒchaw
=37	=37
1A	gne-
1B	-dig
=38	=38
1G	eh
2G	der
*lig	*
2.c	Todt
=39	=39
.	.
4B	.
2c/	.
*Xlig	*
1A	kompt
=40	=40
0G/ll}	ſchir.
==	==
!!!GTL: Geistliche Volkslieder
!!!AGN: Romanze, Ballade, Lied, religioeses Lied
!! Triller 1555
!!!ONB: ESAC (Essen Associative Code) Database: ALTDEU
!!!AMT: simple quadruple
!!!AIN: vox
!!!EED: Helmut Schaffrath
!!!EEV: 1.0
!!!RDF**kern: l = terminal long
!!!AMD: Mixolydian
!!!URL-scan: https://rosdok.uni-rostock.de/mcrviewer/recordIdentifier/rosdok_ppn738218359/iview2/phys_0775.iview2?x=-1109.6783561451143&y=992.6087931557558&scale=0.3419616978207278&rotation=0&layout=singlePageLayout&logicalDiv=log_0021
!!!ENC: Anna Maria Matuszewska
!!!EEV: 2024/21/03
*-	*-
